src/scalable/apps/doublecmd.svg

<?xml version="1.0" encoding="UTF-8" standalone="no"?>
<svg
   width="512"
   height="512"
   enable-background="new"
   version="1.0"
   id="svg46"
   sodipodi:docname="doublecmd.svg"
   inkscape:version="1.1 (c4e8f9ed74, 2021-05-24)"
   xmlns:inkscape="http://www.inkscape.org/namespaces/inkscape"
   xmlns:sodipodi="http://sodipodi.sourceforge.net/DTD/sodipodi-0.dtd"
   xmlns="http://www.w3.org/2000/svg"
   xmlns:svg="http://www.w3.org/2000/svg">
  <sodipodi:namedview
     id="namedview48"
     pagecolor="#ffffff"
     bordercolor="#666666"
     borderopacity="1.0"
     inkscape:pageshadow="2"
     inkscape:pageopacity="0.0"
     inkscape:pagecheckerboard="0"
     showgrid="false"
     inkscape:zoom="1.2832031"
     inkscape:cx="167.15982"
     inkscape:cy="368.99848"
     inkscape:window-width="1920"
     inkscape:window-height="1013"
     inkscape:window-x="0"
     inkscape:window-y="0"
     inkscape:window-maximized="1"
     inkscape:current-layer="svg46" />
  <defs
     id="defs8">
    <filter
       id="b"
       x="-0.024"
       y="-0.024"
       width="1.048"
       height="1.048"
       color-interpolation-filters="sRGB">
      <feGaussianBlur
         stdDeviation="4.48"
         id="feGaussianBlur2" />
    </filter>
    <filter
       id="a"
       x="-0.034"
       y="-0.018545455"
       width="1.068"
       height="1.0370909"
       color-interpolation-filters="sRGB">
      <feGaussianBlur
         stdDeviation="2.72"
         id="feGaussianBlur5" />
    </filter>
  </defs>
  <rect
     transform="matrix(0,-1,-1,0,0,0)"
     x="-482"
     y="-480"
     width="448"
     height="448"
     rx="36"
     ry="36"
     opacity="0.2"
     id="rect10" />
  <rect
     transform="matrix(0,-1,-1,0,-208,228)"
     x="-256"
     y="-688"
     width="448"
     height="448"
     rx="36"
     ry="36"
     filter="url(#b)"
     opacity="0.1"
     id="rect12" />
  <rect
     transform="matrix(0,-1,-1,0,-208,228)"
     x="-256"
     y="-688"
     width="448"
     height="448"
     rx="36"
     ry="36"
     filter="url(#b)"
     opacity="0.2"
     id="rect14" />
  <rect
     transform="matrix(0,-1,-1,0,0,0)"
     x="-480"
     y="-480"
     width="448"
     height="448"
     rx="36"
     ry="36"
     fill="#c43216"
     id="rect18" />
  <path
     d="M 68,32 C 48.056,32 32,48.056 32,68 v 2 C 32,50.056 48.056,34 68,34 h 376 c 19.944,0 36,16.056 36,36 V 68 C 480,48.056 463.944,32 444,32 Z"
     fill="#ffffff"
     opacity="0.2"
     id="path20" />
  <path
     d="m 464,82 a -176,176 0 0 1 16,0.8128 v 64.437 a -112,112 0 0 0 -16,-1.2502 -112,112 0 0 0 -112,112 -112,112 0 0 0 112,112 -112,112 0 0 0 16,-1.2816 v 64.406 a -176,176 0 0 1 -16,0.87536 -176,176 0 0 1 -176,-176 -176,176 0 0 1 176,-176 z"
     opacity="0.2"
     id="path22" />
  <path
     d="m 256,-144 a 176,176 0 0 0 -16,0.8128 v 64.437 a 112,112 0 0 1 16,-1.2502 112,112 0 0 1 112,112 112,112 0 0 1 -112,112 112,112 0 0 1 -16,-1.2816 v 64.406 a 176,176 0 0 0 16,0.87536 176,176 0 0 0 176,-176 176,176 0 0 0 -176,-176 z"
     filter="url(#a)"
     opacity="0.2"
     id="path24"
     transform="matrix(-1,0,0,1,720,228)" />
  <path
     d="m 464,80 a -176,176 0 0 1 16,0.8128 v 64.437 a -112,112 0 0 0 -16,-1.2502 -112,112 0 0 0 -112,112 -112,112 0 0 0 112,112 -112,112 0 0 0 16,-1.2816 v 64.406 a -176,176 0 0 1 -16,0.87536 -176,176 0 0 1 -176,-176 -176,176 0 0 1 176,-176 z"
     fill="#d3d3d3"
     id="path26"
     style="fill:#ffffff" />
  <path
     d="m 464,80 a -176,176 0 0 1 16,0.8125 v 2 A -176,176 0 0 0 464,82 -176,176 0 0 0 288.04,257.17 a -176,176 0 0 1 -0.041,-1.1699 -176,176 0 0 1 176,-176 z M 352.04,256.83 A -112,112 0 0 0 464,368 a -112,112 0 0 0 16,-1.2812 v 2 A -112,112 0 0 1 464,370 -112,112 0 0 1 352,258 a -112,112 0 0 1 0.041,-1.1699 z"
     fill="#ffffff"
     opacity="0.2"
     id="path28" />
  <path
     d="m 48,82 a 176,176 0 0 0 -16,0.8128 v 64.437 a 112,112 0 0 1 16,-1.2502 112,112 0 0 1 112,112 112,112 0 0 1 -112,112 112,112 0 0 1 -16,-1.2816 v 64.406 a 176,176 0 0 0 16,0.87536 176,176 0 0 0 176,-176 176,176 0 0 0 -176,-176 z"
     opacity="0.2"
     id="path32" />
  <path
     d="m 48,84 a 176,176 0 0 0 -16,0.8128 v 64.437 a 112,112 0 0 1 16,-1.2502 112,112 0 0 1 112,112 112,112 0 0 1 -112,112 112,112 0 0 1 -16,-1.2816 v 64.406 a 176,176 0 0 0 16,0.87536 176,176 0 0 0 176,-176 176,176 0 0 0 -176,-176 z"
     filter="url(#a)"
     opacity="0.2"
     id="path34" />
  <path
     d="m 48,80 a 176,176 0 0 0 -16,0.8128 v 64.437 a 112,112 0 0 1 16,-1.2502 112,112 0 0 1 112,112 112,112 0 0 1 -112,112 112,112 0 0 1 -16,-1.2816 v 64.406 a 176,176 0 0 0 16,0.87536 176,176 0 0 0 176,-176 176,176 0 0 0 -176,-176 z"
     fill="#d3d3d3"
     id="path36"
     style="fill:#ffffff" />
  <path
     d="m 48,80 a 176,176 0 0 0 -16,0.8125 v 2 A 176,176 0 0 1 48,82 a 176,176 0 0 1 175.96,175.17 176,176 0 0 0 0.041,-1.1699 176,176 0 0 0 -176,-176 z M 159.96,256.83 A 112,112 0 0 1 48,368 112,112 0 0 1 32,366.7188 v 2 A 112,112 0 0 0 48,370 112,112 0 0 0 160,258 a 112,112 0 0 0 -0.041,-1.1699 z"
     fill="#ffffff"
     opacity="0.2"
     id="path38" />
</svg>

<svg xmlns="http://www.w3.org/2000/svg" width="512" height="512" enable-background="new" version="1.0"><defs><filter id="a" width="1.048" height="1.048" x="-.024" y="-.024" color-interpolation-filters="sRGB"><feGaussianBlur stdDeviation="4.48"/></filter><filter id="c" width="1.068" height="1.037" x="-.034" y="-.019" color-interpolation-filters="sRGB"><feGaussianBlur stdDeviation="2.72"/></filter></defs><rect width="448" height="448" x="-482" y="-480" opacity=".2" rx="36" ry="36" transform="scale(1 -1)rotate(90)"/><rect width="448" height="448" x="-256" y="-688" filter="url(#a)" opacity=".1" rx="36" ry="36" transform="matrix(0 -1 -1 0 -208 228)"/><rect width="448" height="448" x="-256" y="-688" filter="url(#a)" opacity=".2" rx="36" ry="36" transform="matrix(0 -1 -1 0 -208 228)"/><rect width="448" height="448" x="-480" y="-480" fill="#c43216" rx="36" ry="36" transform="scale(1 -1)rotate(90)"/><path fill="#fff" d="M68 32c-19.944 0-36 16.056-36 36v2c0-19.944 16.056-36 36-36h376c19.944 0 36 16.056 36 36v-2c0-19.944-16.056-36-36-36Z" opacity=".2"/><path d="M256-144a176 176 0 0 0-16 .813v64.437A112 112 0 0 1 256-80 112 112 0 0 1 368 32a112 112 0 0 1-112 112 112 112 0 0 1-16-1.282v64.406a176 176 0 0 0 16 .875A176 176 0 0 0 432 32a176 176 0 0 0-176-176z" filter="url(#c)" opacity=".2" transform="matrix(-1 0 0 1 720 228)"/><path d="M48 82a176 176 0 0 0-16 .813v64.437A112 112 0 0 1 48 146a112 112 0 0 1 112 112A112 112 0 0 1 48 370a112 112 0 0 1-16-1.282v64.406a176 176 0 0 0 16 .875 176 176 0 0 0 176-176A176 176 0 0 0 48 82z" opacity=".2"/><path d="M48 84a176 176 0 0 0-16 .813v64.437A112 112 0 0 1 48 148a112 112 0 0 1 112 112A112 112 0 0 1 48 372a112 112 0 0 1-16-1.282v64.406a176 176 0 0 0 16 .875 176 176 0 0 0 176-176A176 176 0 0 0 48 84z" filter="url(#c)" opacity=".2"/><path fill="#d3d3d3" d="M48 80a176 176 0 0 0-16 .813v64.437A112 112 0 0 1 48 144a112 112 0 0 1 112 112A112 112 0 0 1 48 368a112 112 0 0 1-16-1.282v64.406a176 176 0 0 0 16 .875 176 176 0 0 0 176-176A176 176 0 0 0 48 80z" style="fill:#fff"/><path fill="#fff" d="M48 80a176 176 0 0 0-16 .813v2A176 176 0 0 1 48 82a176 176 0 0 1 175.96 175.17l.041-1.17a176 176 0 0 0-176-176zm111.96 176.83A112 112 0 0 1 48 368a112 112 0 0 1-16-1.281v2A112 112 0 0 0 48 370a112 112 0 0 0 112-112 112 112 0 0 0-.041-1.17z" opacity=".2"/></svg>
